src/OnboardingSPA/static/icons/health.svg

<svg fill="none" height="22" viewBox="0 0 22 22" width="22" xmlns="http://www.w3.org/2000/svg" xmlns:xlink="http://www.w3.org/1999/xlink"><mask id="a" fill="#000" height="14" maskUnits="userSpaceOnUse" width="14" x="4.06522" y="3.1521"><path d="m4.06522 3.1521h14v14h-14z" fill="#fff"/><path clip-rule="evenodd" d="m9.0298 15.8295c0 .6114.49851 1.1052 1.1052 1.1052h2.643c.6114 0 1.1052-.4985 1.1052-1.1052v-2.643c0-.1176.0988-.2164.2164-.2164h2.643c.6114 0 1.1052-.4985 1.1052-1.1052v-2.64302c0-.61139-.4985-1.1052-1.1052-1.1052h-2.643c-.1176 0-.2164-.09876-.2164-.21633v-2.64306c0-.61138-.4985-1.10519-1.1052-1.10519h-2.643c-.61139 0-1.1052.49851-1.1052 1.10519v2.64306c0 .11757-.09876.21633-.21634.21633h-2.64305c-.61138 0-1.10519.49852-1.10519 1.1052v2.64302c0 .6114.49851 1.1052 1.10519 1.1052h2.64305c.11758 0 .21634.0988.21634.2164zm-3.07102-6.60292c0-.11757.09876-.21634.21633-.21634h3.30147c.24455 0 .44208-.19752.44208-.44207v-3.30147c0-.11758.09874-.21634.21634-.21634h2.643c.1176 0 .2164.09876.2164.21634v3.30147c0 .24455.1975.44207.4421.44207h3.3014c.1176 0 .2164.09877.2164.21634v2.64302c0 .1176-.0988.2164-.2164.2164h-3.3014c-.2446 0-.4421.1975-.4421.442v3.3015c0 .1176-.0988.2164-.2164.2164h-2.643c-.1176 0-.21634-.0988-.21634-.2164v-3.3015c0-.2445-.19753-.442-.44208-.442h-3.30147c-.11757 0-.21633-.0988-.21633-.2164z" fill="#000" fill-rule="evenodd"/></mask><path d="m21.5084 9.58071.0002.00113c.0577.46656.0914.94326.0914 1.41576 0 5.8459-4.7554 10.6024-10.6 10.6024-5.84457 0-10.6-4.7565-10.6-10.6024 0-5.84581 4.75543-10.602416 10.6001-10.597596m10.5083 9.180706-10.5084-9.080706m10.5084 9.080706c-.1108-.81894-.3131-1.62382-.612-2.39531l-.0001-.00024c-.1973-.50546-.4333-1.00666-.7083-1.47946l-.0001-.00029c-.099-.16883-.2796-.27381-.4777-.27381-.0912 0-.1912.02246-.2768.07691-.1268.0755-.2134.19179-.2535.32926-.0416.14274-.0175.29473.0521.41654l.0003.00042c.2454.42495.458.87375.6328 1.32738.2645.68973.4487 1.40776.5478 2.14469l.0001.00017c.0566.41543.085.84533.085 1.27063 0 5.239-4.2603 9.5001-9.498 9.5001s-9.49795-4.2611-9.49795-9.5001c0-5.23893 4.26025-9.50012 9.49795-9.50012 1.6673 0 3.3062.43937 4.7419 1.26604l.0003.00016c.0801.0458.1782.07524.2739.07524.1981 0 .3787-.10498.4777-.2738l.0003-.00055c.1513-.26186.0645-.60022-.2036-.7524m5.2179 7.76854-5.2679-7.68198m-5.2404-1.498726-.0001.1m.0001-.1h-.0001v.1m.0001-.1c1.8596.000014 3.6905.486691 5.2904 1.412166m-5.2905-1.312166c1.8423 0 3.6559.482155 5.2405 1.398726m.05-.08656c-.0003-.00016-.0005-.00033-.0008-.00049l-.0492.08705m.05-.08656-.05.08656" fill="#fff" stroke="#000" stroke-width=".2"/><path clip-rule="evenodd" d="m9.0298 15.8295c0 .6114.49851 1.1052 1.1052 1.1052h2.643c.6114 0 1.1052-.4985 1.1052-1.1052v-2.643c0-.1176.0988-.2164.2164-.2164h2.643c.6114 0 1.1052-.4985 1.1052-1.1052v-2.64302c0-.61139-.4985-1.1052-1.1052-1.1052h-2.643c-.1176 0-.2164-.09876-.2164-.21633v-2.64306c0-.61138-.4985-1.10519-1.1052-1.10519h-2.643c-.61139 0-1.1052.49851-1.1052 1.10519v2.64306c0 .11757-.09876.21633-.21634.21633h-2.64305c-.61138 0-1.10519.49852-1.10519 1.1052v2.64302c0 .6114.49851 1.1052 1.10519 1.1052h2.64305c.11758 0 .21634.0988.21634.2164zm-3.07102-6.60292c0-.11757.09876-.21634.21633-.21634h3.30147c.24455 0 .44208-.19752.44208-.44207v-3.30147c0-.11758.09874-.21634.21634-.21634h2.643c.1176 0 .2164.09876.2164.21634v3.30147c0 .24455.1975.44207.4421.44207h3.3014c.1176 0 .2164.09877.2164.21634v2.64302c0 .1176-.0988.2164-.2164.2164h-3.3014c-.2446 0-.4421.1975-.4421.442v3.3015c0 .1176-.0988.2164-.2164.2164h-2.643c-.1176 0-.21634-.0988-.21634-.2164v-3.3015c0-.2445-.19753-.442-.44208-.442h-3.30147c-.11757 0-.21633-.0988-.21633-.2164z" fill="#303030" fill-rule="evenodd"/><path d="m10.135 16.8347c-.55174 0-1.0052-.4493-1.0052-1.0052h-.2c0 .6669.54356 1.2052 1.2052 1.2052zm2.643 0h-2.643v.2h2.643zm1.0052-1.0052c0 .5517-.4493 1.0052-1.0052 1.0052v.2c.6669 0 1.2052-.5436 1.2052-1.2052zm0-2.643v2.643h.2v-2.643zm.3164-.3164c-.1728 0-.3164.1436-.3164.3164h.2c0-.0624.054-.1164.1164-.1164zm2.643 0h-2.643v.2h2.643zm1.0052-1.0052c0 .5518-.4493 1.0052-1.0052 1.0052v.2c.6669 0 1.2052-.5435 1.2052-1.2052zm0-2.64302v2.64302h.2v-2.64302zm-1.0052-1.0052c.5518 0 1.0052.44932 1.0052 1.0052h.2c0-.66689-.5435-1.2052-1.2052-1.2052zm-2.643 0h2.643v-.2h-2.643zm-.3164-.31633c0 .1728.1436.31633.3164.31633v-.2c-.0624 0-.1164-.05399-.1164-.11633zm0-2.64306v2.64306h.2v-2.64306zm-1.0052-1.00519c.5518 0 1.0052.44931 1.0052 1.00519h.2c0-.66689-.5435-1.20519-1.2052-1.20519zm-2.643 0h2.643v-.2h-2.643zm-1.0052 1.00519c0-.55173.44931-1.00519 1.0052-1.00519v-.2c-.6669 0-1.2052.54356-1.2052 1.20519zm0 2.64306v-2.64306h-.2v2.64306zm-.31634.31633c.17281 0 .31634-.14353.31634-.31633h-.2c0 .06234-.05399.11633-.11634.11633zm-2.64305 0h2.64305v-.2h-2.64305zm-1.00519 1.0052c0-.55173.44931-1.0052 1.00519-1.0052v-.2c-.66689 0-1.20519.54357-1.20519 1.2052zm0 2.64302v-2.64302h-.2v2.64302zm1.00519 1.0052c-.55173 0-1.00519-.4493-1.00519-1.0052h-.2c0 .6669.54356 1.2052 1.20519 1.2052zm2.64305 0h-2.64305v.2h2.64305zm.31634.3164c0-.1728-.14353-.3164-.31634-.3164v.2c.06235 0 .11634.054.11634.1164zm0 2.643v-2.643h-.2v2.643zm-2.95469-6.91926c-.1728 0-.31633.14354-.31633.31634h.2c0-.06235.05399-.11634.11633-.11634zm3.30147 0h-3.30147v.2h3.30147zm.34208-.34207c0 .18932-.15276.34207-.34208.34207v.2c.29978 0 .54212-.24229.54212-.54207zm0-3.30147v3.30147h.20004v-3.30147zm.31634-.31634c-.17281 0-.31634.14354-.31634.31634h.20004c0-.06235.0539-.11634.1163-.11634zm2.643 0h-2.643v.2h2.643zm.3164.31634c0-.1728-.1435-.31634-.3164-.31634v.2c.0624 0 .1164.05399.1164.11634zm0 3.30147v-3.30147h-.2v3.30147zm.3421.34207c-.1894 0-.3421-.15275-.3421-.34207h-.2c0 .29978.2423.54207.5421.54207zm3.3014 0h-3.3014v.2h3.3014zm.3164.31634c0-.1728-.1436-.31634-.3164-.31634v.2c.0624 0 .1164.05399.1164.11634zm0 2.64302v-2.64302h-.2v2.64302zm-.3164.3164c.1728 0 .3164-.1436.3164-.3164h-.2c0 .0624-.054.1164-.1164.1164zm-3.3014 0h3.3014v-.2h-3.3014zm-.3421.342c0-.1893.1527-.342.3421-.342v-.2c-.2998 0-.5421.2423-.5421.542zm0 3.3015v-3.3015h-.2v3.3015zm-.3164.3164c.1729 0 .3164-.1436.3164-.3164h-.2c0 .0624-.054.1164-.1164.1164zm-2.643 0h2.643v-.2h-2.643zm-.31634-.3164c0 .1728.14353.3164.31634.3164v-.2c-.0624 0-.1163-.054-.1163-.1164zm0-3.3015v3.3015h.20004v-3.3015zm-.34208-.342c.18932 0 .34208.1527.34208.342h.20004c0-.2997-.24234-.542-.54212-.542zm-3.30147 0h3.30147v-.2h-3.30147zm-.31633-.3164c0 .1728.14353.3164.31633.3164v-.2c-.06234 0-.11633-.054-.11633-.1164zm0-2.64302v2.64302h.2v-2.64302z" fill="#000" mask="url(#a)"/></svg>

<svg width="22" height="22" viewBox="0 0 22 22" fill="none" xmlns="http://www.w3.org/2000/svg">
<g id="health">
<path id="Path" d="M21.5084 9.58071L21.5086 9.58184C21.5663 10.0484 21.6 10.5251 21.6 10.9976C21.6 16.8435 16.8446 21.6 11 21.6C5.15543 21.6 0.4 16.8435 0.4 10.9976C0.4 5.15179 5.15543 0.395184 11.0001 0.400004M21.5084 9.58071L11 0.500004M21.5084 9.58071C21.3976 8.76177 21.1953 7.95689 20.8964 7.1854L20.8963 7.18516C20.699 6.6797 20.463 6.1785 20.188 5.7057L20.1879 5.70541C20.0889 5.53658 19.9083 5.4316 19.7102 5.4316C19.619 5.4316 19.519 5.45406 19.4334 5.50851C19.3066 5.58401 19.22 5.7003 19.1799 5.83777C19.1383 5.98051 19.1624 6.1325 19.232 6.25431L19.2323 6.25473C19.4777 6.67968 19.6903 7.12848 19.8651 7.58211C20.1296 8.27184 20.3138 8.98987 20.4129 9.7268L20.413 9.72697C20.4696 10.1424 20.498 10.5723 20.498 10.9976C20.498 16.2366 16.2377 20.4977 11 20.4977C5.7623 20.4977 1.50205 16.2366 1.50205 10.9976C1.50205 5.75867 5.7623 1.49748 11 1.49748C12.6673 1.49748 14.3062 1.93685 15.7419 2.76352L15.7422 2.76368C15.8223 2.80948 15.9204 2.83892 16.0161 2.83892C16.2142 2.83892 16.3948 2.73394 16.4938 2.56512L16.4941 2.56457C16.6454 2.30271 16.5586 1.96435 16.2905 1.81217M21.5084 9.58071L16.2405 1.89873M11.0001 0.400004L11 0.500004M11.0001 0.400004C11.0001 0.400004 11 0.400004 11 0.400004V0.500004M11.0001 0.400004C12.8597 0.400018 14.6906 0.886695 16.2905 1.81217M11 0.500004C12.8423 0.500004 14.6559 0.982159 16.2405 1.89873M16.2905 1.81217C16.2902 1.81201 16.29 1.81184 16.2897 1.81168L16.2405 1.89873M16.2905 1.81217L16.2405 1.89873" fill="white" stroke="black" stroke-width="0.2"/>
<g id="Shape">
<mask id="path-2-outside-1_34674_6892" maskUnits="userSpaceOnUse" x="4.06522" y="3.1521" width="14" height="14" fill="black">
<rect fill="white" x="4.06522" y="3.1521" width="14" height="14"/>
<path fill-rule="evenodd" clip-rule="evenodd" d="M9.0298 15.8295C9.0298 16.4409 9.52831 16.9347 10.135 16.9347H12.778C13.3894 16.9347 13.8832 16.4362 13.8832 15.8295V13.1865C13.8832 13.0689 13.982 12.9701 14.0996 12.9701H16.7426C17.354 12.9701 17.8478 12.4716 17.8478 11.8649V9.22188C17.8478 8.61049 17.3493 8.11668 16.7426 8.11668H14.0996C13.982 8.11668 13.8832 8.01792 13.8832 7.90035V5.25729C13.8832 4.64591 13.3847 4.1521 12.778 4.1521H10.135C9.52361 4.1521 9.0298 4.65061 9.0298 5.25729V7.90035C9.0298 8.01792 8.93104 8.11668 8.81346 8.11668H6.17041C5.55903 8.11668 5.06522 8.6152 5.06522 9.22188V11.8649C5.06522 12.4763 5.56373 12.9701 6.17041 12.9701H8.81346C8.93104 12.9701 9.0298 13.0689 9.0298 13.1865V15.8295ZM5.95878 9.22658C5.95878 9.10901 6.05754 9.01024 6.17511 9.01024H9.47658C9.72113 9.01024 9.91866 8.81272 9.91866 8.56817V5.2667C9.91866 5.14912 10.0174 5.05036 10.135 5.05036H12.778C12.8956 5.05036 12.9944 5.14912 12.9944 5.2667V8.56817C12.9944 8.81272 13.1919 9.01024 13.4365 9.01024H16.7379C16.8555 9.01024 16.9543 9.10901 16.9543 9.22658V11.8696C16.9543 11.9872 16.8555 12.086 16.7379 12.086H13.4365C13.1919 12.086 12.9944 12.2835 12.9944 12.528V15.8295C12.9944 15.9471 12.8956 16.0459 12.778 16.0459H10.135C10.0174 16.0459 9.91866 15.9471 9.91866 15.8295V12.528C9.91866 12.2835 9.72113 12.086 9.47658 12.086H6.17511C6.05754 12.086 5.95878 11.9872 5.95878 11.8696V9.22658Z"/>
</mask>
<path fill-rule="evenodd" clip-rule="evenodd" d="M9.0298 15.8295C9.0298 16.4409 9.52831 16.9347 10.135 16.9347H12.778C13.3894 16.9347 13.8832 16.4362 13.8832 15.8295V13.1865C13.8832 13.0689 13.982 12.9701 14.0996 12.9701H16.7426C17.354 12.9701 17.8478 12.4716 17.8478 11.8649V9.22188C17.8478 8.61049 17.3493 8.11668 16.7426 8.11668H14.0996C13.982 8.11668 13.8832 8.01792 13.8832 7.90035V5.25729C13.8832 4.64591 13.3847 4.1521 12.778 4.1521H10.135C9.52361 4.1521 9.0298 4.65061 9.0298 5.25729V7.90035C9.0298 8.01792 8.93104 8.11668 8.81346 8.11668H6.17041C5.55903 8.11668 5.06522 8.6152 5.06522 9.22188V11.8649C5.06522 12.4763 5.56373 12.9701 6.17041 12.9701H8.81346C8.93104 12.9701 9.0298 13.0689 9.0298 13.1865V15.8295ZM5.95878 9.22658C5.95878 9.10901 6.05754 9.01024 6.17511 9.01024H9.47658C9.72113 9.01024 9.91866 8.81272 9.91866 8.56817V5.2667C9.91866 5.14912 10.0174 5.05036 10.135 5.05036H12.778C12.8956 5.05036 12.9944 5.14912 12.9944 5.2667V8.56817C12.9944 8.81272 13.1919 9.01024 13.4365 9.01024H16.7379C16.8555 9.01024 16.9543 9.10901 16.9543 9.22658V11.8696C16.9543 11.9872 16.8555 12.086 16.7379 12.086H13.4365C13.1919 12.086 12.9944 12.2835 12.9944 12.528V15.8295C12.9944 15.9471 12.8956 16.0459 12.778 16.0459H10.135C10.0174 16.0459 9.91866 15.9471 9.91866 15.8295V12.528C9.91866 12.2835 9.72113 12.086 9.47658 12.086H6.17511C6.05754 12.086 5.95878 11.9872 5.95878 11.8696V9.22658Z" fill="#303030"/>
<path d="M10.135 16.8347C9.58326 16.8347 9.1298 16.3854 9.1298 15.8295H8.9298C8.9298 16.4964 9.47336 17.0347 10.135 17.0347V16.8347ZM12.778 16.8347H10.135V17.0347H12.778V16.8347ZM13.7832 15.8295C13.7832 16.3812 13.3339 16.8347 12.778 16.8347V17.0347C13.4449 17.0347 13.9832 16.4911 13.9832 15.8295H13.7832ZM13.7832 13.1865V15.8295H13.9832V13.1865H13.7832ZM14.0996 12.8701C13.9268 12.8701 13.7832 13.0137 13.7832 13.1865H13.9832C13.9832 13.1241 14.0372 13.0701 14.0996 13.0701V12.8701ZM16.7426 12.8701H14.0996V13.0701H16.7426V12.8701ZM17.7478 11.8649C17.7478 12.4167 17.2985 12.8701 16.7426 12.8701V13.0701C17.4095 13.0701 17.9478 12.5266 17.9478 11.8649H17.7478ZM17.7478 9.22188V11.8649H17.9478V9.22188H17.7478ZM16.7426 8.21668C17.2944 8.21668 17.7478 8.666 17.7478 9.22188H17.9478C17.9478 8.55499 17.4043 8.01668 16.7426 8.01668V8.21668ZM14.0996 8.21668H16.7426V8.01668H14.0996V8.21668ZM13.7832 7.90035C13.7832 8.07315 13.9268 8.21668 14.0996 8.21668V8.01668C14.0372 8.01668 13.9832 7.96269 13.9832 7.90035H13.7832ZM13.7832 5.25729V7.90035H13.9832V5.25729H13.7832ZM12.778 4.2521C13.3298 4.2521 13.7832 4.70141 13.7832 5.25729H13.9832C13.9832 4.5904 13.4397 4.0521 12.778 4.0521V4.2521ZM10.135 4.2521H12.778V4.0521H10.135V4.2521ZM9.1298 5.25729C9.1298 4.70556 9.57911 4.2521 10.135 4.2521V4.0521C9.4681 4.0521 8.9298 4.59566 8.9298 5.25729H9.1298ZM9.1298 7.90035V5.25729H8.9298V7.90035H9.1298ZM8.81346 8.21668C8.98627 8.21668 9.1298 8.07315 9.1298 7.90035H8.9298C8.9298 7.96269 8.87581 8.01668 8.81346 8.01668V8.21668ZM6.17041 8.21668H8.81346V8.01668H6.17041V8.21668ZM5.16522 9.22188C5.16522 8.67015 5.61453 8.21668 6.17041 8.21668V8.01668C5.50352 8.01668 4.96522 8.56025 4.96522 9.22188H5.16522ZM5.16522 11.8649V9.22188H4.96522V11.8649H5.16522ZM6.17041 12.8701C5.61868 12.8701 5.16522 12.4208 5.16522 11.8649H4.96522C4.96522 12.5318 5.50878 13.0701 6.17041 13.0701V12.8701ZM8.81346 12.8701H6.17041V13.0701H8.81346V12.8701ZM9.1298 13.1865C9.1298 13.0137 8.98627 12.8701 8.81346 12.8701V13.0701C8.87581 13.0701 8.9298 13.1241 8.9298 13.1865H9.1298ZM9.1298 15.8295V13.1865H8.9298V15.8295H9.1298ZM6.17511 8.91024C6.00231 8.91024 5.85878 9.05378 5.85878 9.22658H6.05878C6.05878 9.16423 6.11277 9.11024 6.17511 9.11024V8.91024ZM9.47658 8.91024H6.17511V9.11024H9.47658V8.91024ZM9.81866 8.56817C9.81866 8.75749 9.6659 8.91024 9.47658 8.91024V9.11024C9.77636 9.11024 10.0187 8.86795 10.0187 8.56817H9.81866ZM9.81866 5.2667V8.56817H10.0187V5.2667H9.81866ZM10.135 4.95036C9.96219 4.95036 9.81866 5.0939 9.81866 5.2667H10.0187C10.0187 5.20435 10.0726 5.15036 10.135 5.15036V4.95036ZM12.778 4.95036H10.135V5.15036H12.778V4.95036ZM13.0944 5.2667C13.0944 5.0939 12.9509 4.95036 12.778 4.95036V5.15036C12.8404 5.15036 12.8944 5.20435 12.8944 5.2667H13.0944ZM13.0944 8.56817V5.2667H12.8944V8.56817H13.0944ZM13.4365 8.91024C13.2471 8.91024 13.0944 8.75749 13.0944 8.56817H12.8944C12.8944 8.86795 13.1367 9.11024 13.4365 9.11024V8.91024ZM16.7379 8.91024H13.4365V9.11024H16.7379V8.91024ZM17.0543 9.22658C17.0543 9.05378 16.9107 8.91024 16.7379 8.91024V9.11024C16.8003 9.11024 16.8543 9.16423 16.8543 9.22658H17.0543ZM17.0543 11.8696V9.22658H16.8543V11.8696H17.0543ZM16.7379 12.186C16.9107 12.186 17.0543 12.0424 17.0543 11.8696H16.8543C16.8543 11.932 16.8003 11.986 16.7379 11.986V12.186ZM13.4365 12.186H16.7379V11.986H13.4365V12.186ZM13.0944 12.528C13.0944 12.3387 13.2471 12.186 13.4365 12.186V11.986C13.1367 11.986 12.8944 12.2283 12.8944 12.528H13.0944ZM13.0944 15.8295V12.528H12.8944V15.8295H13.0944ZM12.778 16.1459C12.9509 16.1459 13.0944 16.0023 13.0944 15.8295H12.8944C12.8944 15.8919 12.8404 15.9459 12.778 15.9459V16.1459ZM10.135 16.1459H12.778V15.9459H10.135V16.1459ZM9.81866 15.8295C9.81866 16.0023 9.96219 16.1459 10.135 16.1459V15.9459C10.0726 15.9459 10.0187 15.8919 10.0187 15.8295H9.81866ZM9.81866 12.528V15.8295H10.0187V12.528H9.81866ZM9.47658 12.186C9.6659 12.186 9.81866 12.3387 9.81866 12.528H10.0187C10.0187 12.2283 9.77636 11.986 9.47658 11.986V12.186ZM6.17511 12.186H9.47658V11.986H6.17511V12.186ZM5.85878 11.8696C5.85878 12.0424 6.00231 12.186 6.17511 12.186V11.986C6.11277 11.986 6.05878 11.932 6.05878 11.8696H5.85878ZM5.85878 9.22658V11.8696H6.05878V9.22658H5.85878Z" fill="black" mask="url(#path-2-outside-1_34674_6892)"/>
</g>
</g>
</svg>
